packages/calcite-ui-icons/icons/speech-bubble-empty-24.svg

<?xml version="1.0" encoding="UTF-8"?><svg id="icons" xmlns="http://www.w3.org/2000/svg" viewBox="0 0 24 24"><defs><style>.cls-1{fill:none;}</style></defs><path d="M6,21.96338v-4.96338h-.75c-1.79199,0-3.25-1.45801-3.25-3.25V5.25c0-1.79199,1.45801-3.25,3.25-3.25h14.5c1.79199,0,3.2,1.45801,3.2,3.25v8.5c0,1.79199-1.40801,3.25-3.2,3.25h-6.92578l-6.82422,4.96338ZM5.25,3c-1.24023,0-2.25,1.00928-2.25,2.25v8.5c0,1.24072,1.00977,2.25,2.25,2.25h1.75v3.99951l5.5-3.99951h7.25c1.24023,0,2.25-1.00928,2.25-2.25V5.25c0-1.24072-1.00977-2.25-2.25-2.25H5.25Z"/><rect class="cls-1" width="24" height="24"/></svg>

<svg xmlns="http://www.w3.org/2000/svg" viewBox="0 0 24 24"><path d="M6 21.963V17h-.75A3.254 3.254 0 0 1 2 13.75v-8.5A3.254 3.254 0 0 1 5.25 2h14.5c1.792 0 3.2 1.458 3.2 3.25v8.5c0 1.792-1.408 3.25-3.2 3.25h-6.926L6 21.963zM5.25 3C4.01 3 3 4.01 3 5.25v8.5C3 14.99 4.01 16 5.25 16H7v4l5.5-4h7.25c1.24 0 2.25-1.01 2.25-2.25v-8.5C22 4.01 20.99 3 19.75 3H5.25z"/><path fill="none" d="M0 0h24v24H0z"/></svg>
